X:1
T:Colyton, 11.11.11.11
T:Colyton, 11.11.11.11
T:William Henry Monk, 1881
T:Public Domain Courtesy of the Cyber Hymnal™
C:William Henry Monk, 1881
Z:Public Domain
Z:Courtesy of the Cyber Hymnal™
%%score ( 1 2 ) ( 3 4 )
L:1/8
Q:1/4=115
M:4/4
K:C
V:1 treble 
V:2 treble 
V:3 bass 
V:4 bass 
V:1
 [CE]2 [EG]2 [FA]2 [FB]2 | [Ec]4 [Ec]4 | [GB]2 [FA]2 [EG]2 [DF]2 | [CE]8 | [CE]2 E2 [DF]2 [DE]2 | %5
 [CE]4 A4 | [EG]2 [DF]2 [CE]2 [B,D]2 | [CE]8 | G2 [FG]2 [Ec]2 [GB]2 | [GB]4 [FA]4 | %10
 [FA]2 [GA]2 [^Fd]2 [Ac]2 | [GB]8 | [GB]2 [DB]2 [Ec]2 [Fd]2 | [Ge]4 [Ec]4 | %14
 [EG]2 [EG]2 [FA]2 [FG]2 | [Ec]8 |] %16
V:2
 x8 | x8 | x8 | x8 | x2 E2 x4 | x4 (C2 D2) | x8 | x8 | G2 x6 | x8 | x8 | x8 | x8 | x8 | x8 | x8 |] %16
V:3
 [C,C]2 [C,C]2 [F,C]2 [D,G,]2 | [C,G,]4 [C,C]4 | [E,C]2 [F,C]2 [B,,G,]2 [B,,G,]2 | [C,G,]8 | %4
 [A,,A,]2 [C,A,]2 [D,A,]2 [E,^G,]2 | A,4 (A,2 B,2) | [E,C]2 [F,A,]2 G,2 [G,,G,]2 | [C,G,]8 | %8
 [E,C]2 [D,B,]2 [C,C]2 [E,C]2 | [F,C]4 [F,C]4 | [F,C]2 [E,^C]2 [D,D]2 [^F,D]2 | [G,D]8 | %12
 [G,D]2 [F,G,]2 [E,G,]2 [D,G,]2 | [C,G,]4 C4 | [G,C]2 [G,C]2 [G,B,]2 [G,B,]2 | [C,C]8 |] %16
V:4
 x8 | x8 | x8 | x8 | x8 | A,4 F,4 | x4 G,2 x2 | x8 | x8 | x8 | x8 | x8 | x8 | x4 (C,2 E,2) | x8 | %15
 x8 |] %16

